src/cmd/lc_tablenumberformatdialog.svg

<?xml version="1.0" encoding="UTF-8" standalone="no"?>
<svg
   xmlns:dc="http://purl.org/dc/elements/1.1/"
   xmlns:cc="http://creativecommons.org/ns#"
   xmlns:rdf="http://www.w3.org/1999/02/22-rdf-syntax-ns#"
   xmlns:svg="http://www.w3.org/2000/svg"
   xmlns="http://www.w3.org/2000/svg"
   xmlns:sodipodi="http://sodipodi.sourceforge.net/DTD/sodipodi-0.dtd"
   xmlns:inkscape="http://www.inkscape.org/namespaces/inkscape"
   viewBox="0 0 24 24"
   version="1.1"
   id="svg6"
   sodipodi:docname="lc_tablenumberformatdialog.svg"
   inkscape:version="0.92.4 (5da689c313, 2019-01-14)"
   inkscape:export-filename="/home/jupiter007/Libreoffice yaru theme/build/cmd/lc_tablenumberformatdialog.png"
   inkscape:export-xdpi="95"
   inkscape:export-ydpi="95">
  <metadata
     id="metadata12">
    <rdf:RDF>
      <cc:Work
         rdf:about="">
        <dc:format>image/svg+xml</dc:format>
        <dc:type
           rdf:resource="http://purl.org/dc/dcmitype/StillImage" />
      </cc:Work>
    </rdf:RDF>
  </metadata>
  <defs
     id="defs10" />
  <sodipodi:namedview
     pagecolor="#ffffff"
     bordercolor="#666666"
     borderopacity="1"
     objecttolerance="10"
     gridtolerance="10"
     guidetolerance="10"
     inkscape:pageopacity="0"
     inkscape:pageshadow="2"
     inkscape:window-width="1920"
     inkscape:window-height="1011"
     id="namedview8"
     showgrid="true"
     inkscape:zoom="16"
     inkscape:cx="-2.893066"
     inkscape:cy="9.8281321"
     inkscape:window-x="0"
     inkscape:window-y="32"
     inkscape:window-maximized="1"
     inkscape:current-layer="svg6">
    <inkscape:grid
       type="xygrid"
       id="grid822" />
  </sodipodi:namedview>
  <path
     style="fill:#232629"
     d="M 12 4 C 7.5817215 4.000001 3.9999997 7.5817228 4 12 C 4 14.070264 4.80284 16.115337 6.34375 17.65625 C 7.872458 19.185662 9.9549432 20.03112 12.117188 20 C 13.481792 19.979607 14.818317 19.610483 16 18.927734 L 15.5 18.0625 C 12.756036 19.646128 9.2908754 19.189523 7.0507812 16.949219 C 5.7021942 15.600883 5 13.811703 5 12 C 5 8.1340068 8.1340068 5 12 5 C 15.477294 5.00314 18.957948 8.0398192 19 11 C 18.9982 12.822562 17.764689 14.54436 16 15 L 16 8 L 15 8 L 15 9.3613281 C 14.241964 8.4976979 13.149118 8.0017906 12 8 C 9.790861 8 8 9.790861 8 12 C 8 14.209139 9.790861 16 12 16 C 13.149118 15.9982 14.241964 15.502302 15 14.638672 L 15 16 L 16 16 C 18.327756 15.524847 19.999743 13.375756 20 11 C 20.03135 7.1633417 16.028739 4.0038113 12 4 z M 12 9 C 13.656854 9 15 10.343146 15 12 C 15 13.656854 13.656854 15 12 15 C 10.343146 15 9 13.656854 9 12 C 9 10.343146 10.343146 9 12 9 z "
     id="path4" />
</svg>

<svg viewBox="0 0 24 24" xmlns="http://www.w3.org/2000/svg"><path d="m11 18c-.55229 0-1 .44772-1 1 0 .55229.44771 1 1 1 .55228 0 1-.44771 1-1 0-.55228-.44772-1-1-1zm4 0c-.55229 0-1 .44772-1 1 0 .55229.44771 1 1 1 .55228 0 1-.44771 1-1 0-.55228-.44772-1-1-1zm4 0c-.55229 0-1 .44772-1 1 0 .55229.44771 1 1 1 .55228 0 1-.44771 1-1 0-.55228-.44772-1-1-1z" fill="#e95420"/><path d="m12 4c-4.4182785.000001-8.0000003 3.5817228-8 8-.0000003 3.35457 2.0713964 6.213182 5 7.400391v-1.082032c-2.3637419-1.12347-4-3.526976-4-6.318359 0-3.8659932 3.1340068-7 7-7 3.477294.00314 6.957948 3.0398192 7 6-.0018 1.822562-1.235311 3.54436-3 4v-7h-1v1.3613281c-.758036-.8636302-1.850882-1.3595375-3-1.3613281-2.209139 0-4 1.790861-4 4s1.790861 4 4 4c1.149118-.0018 2.241964-.497698 3-1.361328v1.361328h1c2.327756-.475153 3.999743-2.624244 4-5 .03135-3.8366583-3.971261-6.9961887-8-7zm0 5c1.656854 0 3 1.343146 3 3s-1.343146 3-3 3-3-1.343146-3-3 1.343146-3 3-3z" fill="#232629"/></svg>
